icon-themes/breeze_svg/cmd/lc_shadowed.svg

<svg viewBox="0 0 24 24" xmlns="http://www.w3.org/2000/svg"><path d="m13.095703 4.9960938.029297 2.0039062-2.076172-1.9628906-4.9726561 13.9609376 1.9238281 2.001953h1.6582031l1.6249999-4.4375h5.433594l-.386719 2.433594 2.011719 2.003906h1.658203l-1.472656-4-.123047-.40625-3.314453-9.59375zm.919922 3.9414062 2.179687 6.34375-1.035156-.900391-3.070312.138672z" fill="#b3b3b3"/><path d="m10.910156 5-3.3144529 9.59375-.1230469.40625-1.4726562 4h1.6582031l1.625-4.4375h5.4335939l1.625 4.4375h1.658203l-1.472656-4-.123047-.40625-3.314453-9.59375h-.214844-1.75zm1.105469 1.9375 2.179687 6.34375h-4.3906245z" fill="#4d4d4d"/></svg>

<svg xmlns="http://www.w3.org/2000/svg" viewBox="0 0 24 24">
 <path 
     style="fill:#b3b3b3" 
     d="M 13.095703 4.9960938 L 13.125 7 L 11.048828 5.0371094 L 6.0761719 18.998047 L 8 21 L 9.6582031 21 L 11.283203 16.5625 L 16.716797 16.5625 L 16.330078 18.996094 L 18.341797 21 L 20 21 L 18.527344 17 L 18.404297 16.59375 L 15.089844 7 L 13.095703 4.9960938 z M 14.015625 8.9375 L 16.195312 15.28125 L 15.160156 14.380859 L 12.089844 14.519531 L 14.015625 8.9375 z "
     />
 <path 
     style="fill:#4d4d4d" 
     d="M 10.910156 5 L 7.5957031 14.59375 L 7.4726562 15 L 6 19 L 7.6582031 19 L 9.2832031 14.5625 L 14.716797 14.5625 L 16.341797 19 L 18 19 L 16.527344 15 L 16.404297 14.59375 L 13.089844 5 L 12.875 5 L 11.125 5 L 10.910156 5 z M 12.015625 6.9375 L 14.195312 13.28125 L 9.8046875 13.28125 L 12.015625 6.9375 z "
     />
 </svg>
